X: 1
T: Imagine John Lennon- Cyrano of Meneldor
M:4/4
L:1/8
Q:1/4=225
K:Bb
V:1
z8|z8|z8|z8|
z8|z8|[F3-D3-B,3][F3D3B,3] [F2-D2-B,2-]|[F-D-B,][F3D3B,3] [F3-D3-B,3][F-D-B,-]|
[F2D2B,2] [A3-F3-D3-B,3][A3F3D3B,3]|[G3-E3-E,3][G3E3B,3] [G2-E2-E,2-]|[G-E-E,][G3E3B,3] [G3-E3-E,3][G-E-B,-]|[G2E2B,2-] [G3/2E3/2B,3/2-][^G3/2B,3/2-][A3B,3]|
[c3-F3-D3-B,3][c3F3D3B,3] [F2-D2-B,2-]|[F-D-B,][F3D3B,3] [F3-D3-B,3][F-D-B,-]|[F2D2B,2] [A3-F3-D3-B,3][A3F3D3B,3]|[=G3-E3-E,3][G3E3B,3] [G2-E2-E,2-]|
[G-E-E,][G3E3B,3] [G3-E3-E,3][G-E-B,-]|[G2E2B,2-] [G3/2E3/2B,3/2-][^G3/2B,3/2-][A3B,3]|[d3-c3-F3-B,3][d3/2-c3/2-F3/2-B,3/2-][f3/2d3/2c3/2F3/2B,3/2] [f3/2d3/2-B3/2-B,3/2-][f/2-d/2-B/2-B,/2-]|[f-d-B-B,][f3d3B3B,3] [f3-d3-B3-B,3][f-d-B-B,-]|
[f2d2B2B,2] [a3d3-A3-B,3][a3/2d3/2-A3/2-B,3/2-][g3/2-d3/2A3/2B,3/2]|[g3B3-=G3-E,3][B3G3B,3] [B2-G2-E,2-]|[B-G-E,][B3G3B,3] [B3-G3-E,3][B-G-B,-]|[B2G2B,2-] [G3/2E3/2B,3/2-][^G3/2B,3/2-][A3B,3]|
[d3-c3-F3-B,3][d3/2-c3/2-F3/2-B,3/2-][f3/2d3/2c3/2F3/2B,3/2] [f2-d2-B2-B,2-]|[fd-B-B,][f3d3B3B,3] [f3d3-B3-B,3][a-d-B-B,-]|[a2-d2B2B,2] [a3d3-A3-B,3][a3/2d3/2-A3/2-B,3/2-][g3/2-d3/2A3/2B,3/2]|[g3-B3-=G3-E,3][g3B3G3B,3] [B2-G2-E,2-]|
[B-G-E,][B3G3B,3] [B3-G3-E,3][B-G-B,-]|[B2G2B,2-] [G3/2E3/2B,3/2-][^G3/2B,3/2-][A3B,3]|[d3-c3-F3-B,3][d3c3F3B,3] [f2-d2-B2-B,2-]|[fd-B-B,][f3-d3B3B,3] [f3-d3-B3-B,3][f-d-B-B,-]|
[f2d2B2B,2] [a3d3-A3-B,3][a3/2d3/2-A3/2-B,3/2-][g3/2-d3/2A3/2B,3/2]|[g3B3-=G3-E,3][B3G3B,3] [B2-G2-E,2-]|[B-G-E,][B3G3B,3] [B3-G3-E,3][B-G-B,-]|[B2G2B,2-] [G3/2E3/2B,3/2-][^G3/2B,3/2-][A3B,3]|
[d3-c3-F3-B,3][d3c3F3B,3] [d2-B2-B,2-]|[d-B-B,][d3/2-B3/2-B,3/2-][f3/2d3/2B3/2B,3/2] [f3/2d3/2-B3/2-B,3/2-][f3/2-d3/2-B3/2-B,3/2][f-d-B-B,-]|[f2d2B2B,2] [a3d3-A3-B,3][a3/2d3/2-A3/2-B,3/2-][g3/2-d3/2A3/2B,3/2]|[g3-B3-=G3-E,3][g3B3G3B,3] [B2-G2-E,2-]|
[B-G-E,][B3G3B,3] [B3-G3-E,3][B-G-B,-]|[B2G2B,2] [B3-G3-E,3][B3G3B,3]|[g3-e3-B3-E3E,3-][g3/2e3/2-B3/2-E3/2-E,3/2-][g3/2e3/2B3/2E3/2E,3/2-] [b3/2e3/2-B3/2-E3/2-E,3/2-][g/2-e/2-B/2-E/2-E,/2-]|[g-e-B-EE,-][g3/2e3/2-B3/2-E3/2-E,3/2-][b3/2-e3/2B3/2E3/2E,3/2] [b3-g3-d3-D3D,3-][b-g-d-D-D,-]|
[b2g2d2D2D,2-] [d3b3-g3-D3D,3-][d3b3g3D3D,3]|[c3/2e3/2-B3/2-C3/2-C,3/2-][b3/2e3/2-B3/2-C3/2C,3/2-][g3e3B3C3C,3-] [e2-B2-C2-C,2-]|[e-B-CC,-][e3B3C3C,3] [e3-B3-G3-B,3B,3-][e-B-G-B,-B,-]|[e2B2G2B,2B,2-] [e3-B3-G3-B,3B,3-][e3B3G3B,3B,3]|
[a3f3-c3-F3F,3-][a3-f3-c3-C3F,3-] [a2-f2-c2-F2-F,2-]|[a-f-c-FF,-][a3f3-c3-C3F,3-] [a3-f3-c3-F3F,3-][a-f-c-C-F,-]|[a2f2c2C2F,2-] [b3f3-d3-F3-F,3-][c3-f3d3F3F,3]|[c8-a8-e8-F8-F,8-]|
[c4a4-e4-F4-F,4-] [d3a3e3F3-F,3-][f-F-F,-]|[f4-F4-F,4-] [fF-F,-][d3/2F3/2-F,3/2-][c3/2F3/2F,3/2]|[b3-f3-d3-B,3][b3f3d3B,3] [d3/2-B3/2-B,3/2-][f/2-d/2-B/2-B,/2-]|[fd-B-B,][f3/2d3/2-B3/2-B,3/2-][f3/2d3/2B3/2B,3/2] [f3-d3-B3-B,3][f-d-B-B,-]|
[f2d2B2B,2] [a3d3-A3-B,3][a3d3A3B,3]|[g3-B3-G3-E,3][g3B3G3B,3] [B2-G2-E,2-]|[B-G-E,][B3G3B,3] [B3-G3-E,3][B-G-B,-]|[B2G2B,2-] [G3/2E3/2B,3/2-][^G3/2B,3/2-][A3B,3]|
[d3-c3-F3-B,3][d3/2-c3/2-F3/2-B,3/2-][f3/2d3/2c3/2F3/2B,3/2] [f3/2d3/2-B3/2-B,3/2-][f/2-d/2-B/2-B,/2-]|[fd-B-B,][f3-d3B3B,3] [f3-d3-B3-B,3][f-d-B-B,-]|[f2d2B2B,2] [a3d3-A3-B,3][a3/2d3/2-A3/2-B,3/2-][g3/2-d3/2A3/2B,3/2]|[g3-B3-=G3-E,3][g3B3G3B,3] [B2-G2-E,2-]|
[B-G-E,][B3G3B,3] [B3-G3-E,3][B-G-B,-]|[B2G2B,2-] [G3/2E3/2B,3/2-][^G3/2B,3/2-][A3B,3]|[d3-c3-F3-B,3][d3c3F3B,3] [f3/2d3/2-B3/2-B,3/2-][f/2-d/2-B/2-B,/2-]|[fd-B-B,][f3/2d3/2-B3/2-B,3/2-][f3/2-d3/2B3/2B,3/2] [f3-d3-B3-B,3][f-d-B-B,-]|
[f2d2B2B,2] [a3d3-A3-B,3][a3/2d3/2-A3/2-B,3/2-][g3/2-d3/2A3/2B,3/2]|[g3B3-=G3-E,3][g3B3G3B,3] [B2-G2-E,2-]|[B-G-E,][B3G3B,3] [B3-G3-E,3][B-G-B,-]|[B2G2B,2-] [G3/2E3/2B,3/2-][^G3/2B,3/2-][A3B,3]|
[d3-c3-F3-B,3][d3c3F3B,3] [f3/2d3/2-B3/2-B,3/2-][f/2-d/2-B/2-B,/2-]|[fd-B-B,][f3d3B3B,3] [f3d3-B3-B,3][a-d-B-B,-]|[a2-d2B2B,2] [a3d3-A3-B,3][a3/2d3/2-A3/2-B,3/2-][g3/2-d3/2A3/2B,3/2]|[g3-B3-=G3-E,3][g3B3G3B,3] [B2-G2-E,2-]|
[B-G-E,][B3G3B,3] [B3-G3-E,3][B-G-B,-]|[B2G2B,2] [B3-G3-E,3][B3G3B,3]|[e3-B3-E3E,3-][e3/2-B3/2-E3/2-E,3/2-][g3/2e3/2B3/2E3/2E,3/2-] [b2-e2-B2-E2-E,2-]|[be-B-EE,-][g3e3B3E3E,3] [b3-g3-d3-D3D,3-][b-g-d-D-D,-]|
[b2g2d2D2D,2-] [d3b3-g3-D3D,3-][d3b3g3D3D,3]|[c3/2e3/2-B3/2-C3/2-C,3/2-][b3/2e3/2-B3/2-C3/2C,3/2-][g3e3B3C3C,3-] [e2-B2-C2-C,2-]|[e-B-CC,-][e3B3C3C,3] [e3-B3-G3-B,3B,3-][e-B-G-B,-B,-]|[e2B2G2B,2B,2-] [e3-B3-G3-B,3B,3-][e3B3G3B,3B,3]|
[a3f3-c3-F3F,3-][a3-f3-c3-C3F,3-] [a2-f2-c2-F2-F,2-]|[a-f-c-FF,-][a3f3-c3-C3F,3-] [a3-f3-c3-F3F,3-][a-f-c-C-F,-]|[a2f2c2C2F,2-] [b3f3-c3-F3-F,3-][c3-f3c3F3F,3]|[c8-a8-e8-F8-F,8-]|
[c4a4-e4-F4-F,4-] [d3a3e3F3F,3]f-|f4- fd3/2c3/2|[b3-g3-e3-E3E,3-][b3-g3-e3-B,3E,3-] [b3/2g3/2-e3/2-E3/2-E,3/2-][g/2-e/2-E/2-E,/2-]|[ge-EE,-][b3e3B,3E,3] [a3f3-c3-F3F,3-][b-f-c-C-F,-]|
[b/2f/2-c/2-C/2-F,/2-][a3/2f3/2-c3/2-C3/2F,3/2-] [g3f3-c3-F3F,3-][g3/2f3/2-c3/2-C3/2-F,3/2-][a3/2f3/2c3/2C3/2F,3/2]|[b3f3-d3-B,3B,3-][b3f3d3F,3B,3-] [A2-F2-B,2-B,2-]|[AF-B,B,-][B3F3F,3B,3] [d3-A3-^F3-D3D,3-][d-A-^F-A,-D,-]|[d2A2^F2A,2D,2-] [c3-A3-^F3-D3D,3-][c3A3^F3A,3D,3]|
[B3-G3-E3E,3-][B3G3B,3E,3-] [e3/2-B3/2-E3/2-E,3/2-][g/2-e/2-B/2-E/2-E,/2-]|[ge-B-EE,-][b3e3B3B,3E,3] [a3c3-A3-=F3F,3-][a-c-A-C-F,-]|[a/2c/2-A/2-C/2-F,/2-][g3/2-c3/2-A3/2-C3/2F,3/2-] [g3/2c3/2-A3/2-F3/2-F,3/2-][g3/2c3/2-A3/2-F3/2F,3/2-][d3-c3A3C3F,3]|[d3-B3-F3-B,3B,3-][d3B3F3F,3B,3-] [A2-F2-B,2-B,2-]|
[A-F-B,B,-][B3A3F3F,3B,3] [d3-A3-^F3-D3D,3-][d-A-^F-A,-D,-]|[d2A2^F2A,2D,2-] [c3-A3-^F3-D3D,3-][c3A3^F3A,3D,3]|[B3-G3-E3E,3-][B3/2-G3/2-B,3/2-E,3/2-][g3/2B3/2G3/2B,3/2E,3/2-] [g2-e2-B2-E2-E,2-]|[ge-B-EE,-][b3e3B3B,3E,3] [a3f3-c3-=F3F,3-][b-f-c-C-F,-]|
[b/2f/2-c/2-C/2-F,/2-][a3/2f3/2-c3/2-C3/2F,3/2-] [g3f3-c3-F3F,3-][a3f3c3C3F,3]|[b3d3-B3-B,3B,3-][b3/2d3/2-B3/2-F,3/2-B,3/2-][g3/2d3/2B3/2F,3/2B,3/2-] [f2-A2-B,2-B,2-]|[f-AB,B,-][f3B3F,3B,3] [d3-A3-^F3-D3D,3-][d-A-^F-A,-D,-]|[d2A2^F2A,2D,2-] [c3-A3-^F3-D3D,3-][c3A3^F3A,3D,3]|
[B3-G3-E3E,3-][B3G3B,3E,3-] [g2-e2-E2-E,2-]|[g-e-EE,-][b3/2g3/2-e3/2-B,3/2-E,3/2-][b3/2g3/2e3/2B,3/2E,3/2] [c3a3-f3-=F3F,3-][d-a-f-C-F,-]|[d/2a/2-f/2-C/2-F,/2-][c3/2a3/2-f3/2-C3/2F,3/2-] [b3a3-f3-F3F,3-][c3a3f3C3F,3]|[d3/2f3/2-d3/2-B,3/2-][c3/2f3/2-d3/2-B,3/2][b3-f3-d3-A,3] [b2-f2-d2-F,2-]|
[b-f-d-F,][b3f3d3A,3] G,3A,-|A,2 A,3A,3|[d3-B3-B,3][d3/2-B3/2-B,3/2-][f3/2d3/2B3/2B,3/2] [f3/2d3/2-B3/2-B,3/2-][f/2-d/2-B/2-B,/2-]|[f-d-B-B,][f3/2d3/2-B3/2-B,3/2-][f3/2-d3/2B3/2B,3/2] [f3-d3-B3-B,3][f-d-B-B,-]|
[f2d2B2B,2] [a3d3-A3-B,3][a3d3A3B,3]|[g3-B3-G3-E,3][g3B3G3B,3] [B2-G2-E,2-]|[B-G-E,][B3G3B,3] [B3-G3-E,3][B-G-B,-]|[B2G2B,2-] [G3/2E3/2B,3/2-][^G3/2B,3/2-][A3B,3]|
[d3-c3-F3-B,3][d3c3F3B,3] [d3/2-B3/2-B,3/2-][f/2-d/2-B/2-B,/2-]|[fd-B-B,][f3/2d3/2-B3/2-B,3/2-][f3/2d3/2B3/2B,3/2] [f3/2d3/2-B3/2-B,3/2-][a3/2-d3/2-B3/2-B,3/2][a-d-B-B,-]|[a2-d2B2B,2] [a3d3-A3-B,3][a3/2d3/2-A3/2-B,3/2-][g3/2-d3/2A3/2B,3/2]|[g3-B3-=G3-E,3][g3B3G3B,3] [B2-G2-E,2-]|
[B-G-E,][B3G3B,3] [B3-G3-E,3][B-G-B,-]|[B2G2B,2-] [G3/2E3/2B,3/2-][^G3/2B,3/2-][A3B,3]|[d3-c3-F3-B,3][d3/2-c3/2-F3/2-B,3/2-][f3/2d3/2c3/2F3/2B,3/2] [f2-d2-B2-B,2-]|[fd-B-B,][f3/2d3/2-B3/2-B,3/2-][f3/2-d3/2B3/2B,3/2] [f3-d3-B3-B,3][f-d-B-B,-]|
[f2d2B2B,2] [a3d3-A3-B,3][a3/2d3/2-A3/2-B,3/2-][g3/2-d3/2A3/2B,3/2]|[g3B3-=G3-E,3][g3B3G3B,3] [B2-G2-E,2-]|[B-G-E,][B3G3B,3] [B3-G3-E,3][B-G-B,-]|[B2G2B,2-] [G3/2E3/2B,3/2-][^G3/2B,3/2-][A3B,3]|
[d3-c3-F3-B,3][d3/2-c3/2-F3/2-B,3/2-][f3/2d3/2c3/2F3/2B,3/2] [f3/2d3/2-B3/2-B,3/2-][f/2-d/2-B/2-B,/2-]|[fd-B-B,][f3-d3B3B,3] [f3d3-B3-B,3][a-d-B-B,-]|[a2-d2B2B,2] [a3d3-A3-B,3][a3/2d3/2-A3/2-B,3/2-][g3/2-d3/2A3/2B,3/2]|[g3-B3-=G3-E,3][g3B3G3B,3] [B2-G2-E,2-]|
[B-G-E,][B3G3B,3] [B3-G3-E,3][B-G-B,-]|[B2G2B,2] [B3-G3-E,3][B3G3B,3]|[e3-B3-E3E,3-][e3/2-B3/2-E3/2-E,3/2-][g3/2e3/2B3/2E3/2E,3/2-] [b2-e2-B2-E2-E,2-]|[be-B-EE,-][g3e3B3E3E,3] [b3-g3-d3-D3D,3-][b-g-d-D-D,-]|
[b2g2d2D2D,2-] [d3b3-g3-D3D,3-][d3b3g3D3D,3]|[c3/2e3/2-B3/2-C3/2-C,3/2-][b3/2e3/2-B3/2-C3/2C,3/2-][g3e3B3C3C,3-] [e2-B2-C2-C,2-]|[e-B-CC,-][e3B3C3C,3] [e3-B3-G3-B,3B,3-][e-B-G-B,-B,-]|[e2B2G2B,2B,2-] [e3-B3-G3-B,3B,3-][e3B3G3B,3B,3]|
[a3f3-c3-F3F,3-][a3-f3-c3-C3F,3-] [a2-f2-c2-F2-F,2-]|[a-f-c-FF,-][a3f3-c3-C3F,3-] [a3-f3-c3-F3F,3-][a-f-c-C-F,-]|[a2f2c2C2F,2-] [b3f3-c3-F3-F,3-][c3-f3c3F3F,3]|[c8-a8-e8-F8-F,8-]|
[c4a4-e4-F4-F,4-] [d3a3e3F3F,3]f-|f4- fd3/2c3/2|[b3-g3-e3-E3E,3-][b3-g3-e3-B,3E,3-] [b3/2g3/2-e3/2-E3/2-E,3/2-][g/2-e/2-E/2-E,/2-]|[ge-EE,-][b3e3B,3E,3] [a3f3-c3-F3F,3-][b-f-c-C-F,-]|
[b/2f/2-c/2-C/2-F,/2-][a3/2f3/2-c3/2-C3/2F,3/2-] [g3f3-c3-F3F,3-][g3/2f3/2-c3/2-C3/2-F,3/2-][a3/2f3/2c3/2C3/2F,3/2]|[b3f3-d3-B,3B,3-][b3f3d3F,3B,3-] [A2-F2-B,2-B,2-]|[AF-B,B,-][B3F3F,3B,3] [d3-A3-^F3-D3D,3-][d-A-^F-A,-D,-]|[d2A2^F2A,2D,2-] [c3-A3-^F3-D3D,3-][c3A3^F3A,3D,3]|
[B3-G3-E3E,3-][B3G3B,3E,3-] [e3/2-B3/2-E3/2-E,3/2-][g/2-e/2-B/2-E/2-E,/2-]|[ge-B-EE,-][b3e3B3B,3E,3] [a3c3-A3-=F3F,3-][a-c-A-C-F,-]|[a/2c/2-A/2-C/2-F,/2-][g3/2-c3/2-A3/2-C3/2F,3/2-] [g3/2c3/2-A3/2-F3/2-F,3/2-][g3/2c3/2-A3/2-F3/2F,3/2-][d3-c3A3C3F,3]|[d3-B3-F3-B,3B,3-][d3B3F3F,3B,3-] [A2-F2-B,2-B,2-]|
[A-F-B,B,-][B3A3F3F,3B,3] [d3-A3-^F3-D3D,3-][d-A-^F-A,-D,-]|[d2A2^F2A,2D,2-] [c3-A3-^F3-D3D,3-][c3A3^F3A,3D,3]|[B3-G3-E3E,3-][B3/2-G3/2-B,3/2-E,3/2-][g3/2B3/2G3/2B,3/2E,3/2-] [g2-e2-B2-E2-E,2-]|[ge-B-EE,-][b3e3B3B,3E,3] [a3f3-c3-=F3F,3-][b-f-c-C-F,-]|
[b/2f/2-c/2-C/2-F,/2-][a3/2f3/2-c3/2-C3/2F,3/2-] [g3f3-c3-F3F,3-][a3f3c3C3F,3]|[b3d3-B3-B,3B,3-][b3/2d3/2-B3/2-F,3/2-B,3/2-][g3/2d3/2B3/2F,3/2B,3/2-] [f2-A2-B,2-B,2-]|[f-AB,B,-][f3B3F,3B,3] [d3-A3-^F3-D3D,3-][d-A-^F-A,-D,-]|[d2A2^F2A,2D,2-] [c3-A3-^F3-D3D,3-][c3A3^F3A,3D,3]|
[B3-G3-E3E,3-][B3G3B,3E,3-] [g2-e2-E2-E,2-]|[g-e-EE,-][b3/2g3/2-e3/2-B,3/2-E,3/2-][b3/2g3/2e3/2B,3/2E,3/2] [c3a3-f3-=F3F,3-][d-a-f-C-F,-]|[d/2a/2-f/2-C/2-F,/2-][c3/2a3/2-f3/2-C3/2F,3/2-] [b3a3-f3-F3F,3-][c3a3f3C3F,3]|[d3/2f3/2-d3/2-B,3/2-][c3/2f3/2-d3/2-B,3/2][b3-f3-d3-A,3] [b2-f2-d2-F,2-]|
[b-f-d-F,][b3f3d3A,3] G,3A,-|A,2 A,3A,3|[d3-B3-B,3][d3/2-B3/2-B,3/2-][f3/2d3/2B3/2B,3/2] [f3/2d3/2-B3/2-B,3/2-][f/2-d/2-B/2-B,/2-]|[f-d-B-B,][f3/2d3/2-B3/2-B,3/2-][f3/2-d3/2B3/2B,3/2] [f3-d3-B3-B,3][f-d-B-B,-]|
[f2d2B2B,2] [a3d3-A3-B,3][a3d3A3B,3]|[g3-B3-G3-E,3][g3B3G3B,3] [B2-G2-E,2-]|[B-G-E,][B3G3B,3] [B3-G3-E,3][B-G-B,-]|[B2G2B,2-] [G3/2E3/2B,3/2-][^G3/2B,3/2-][A3B,3]|
[d3-c3-F3-B,3][d3/2-c3/2-F3/2-B,3/2-][f3/2d3/2c3/2F3/2B,3/2] [f3/2d3/2-B3/2-B,3/2-][f/2-d/2-B/2-B,/2-]|[fd-B-B,][f3-d3B3B,3] [f3-d3-B3-B,3][f-d-B-B,-]|[f2d2B2B,2] [a3d3-A3-B,3][a3/2d3/2-A3/2-B,3/2-][g3/2-d3/2A3/2B,3/2]|[g3-B3-=G3-E,3][g3B3G3B,3] [B2-G2-E,2-]|
[B-G-E,][B3G3B,3] [B3-G3-E,3][B-G-B,-]|[B2G2B,2-] [G3/2E3/2B,3/2-][^G3/2B,3/2-][A3B,3]|[d3-c3-F3-B,3][d3c3F3B,3] [f3/2d3/2-B3/2-B,3/2-][f/2-d/2-B/2-B,/2-]|[fd-B-B,][f3/2d3/2-B3/2-B,3/2-][f3/2-d3/2B3/2B,3/2] [f3-d3-B3-B,3][f-d-B-B,-]|
[f2d2B2B,2] [a3d3-A3-B,3][a3/2d3/2-A3/2-B,3/2-][g3/2-d3/2A3/2B,3/2]|[g3B3-=G3-E,3][g3B3G3B,3] [B2-G2-E,2-]|[B-G-E,][B3G3B,3] [B3-G3-E,3][B-G-B,-]|[B2G2B,2-] [G3/2E3/2B,3/2-][^G3/2B,3/2-][A3B,3]|
[d3-c3-F3-B,3][d3c3F3B,3] [f3/2d3/2-B3/2-B,3/2-][f/2-d/2-B/2-B,/2-]|[fd-B-B,][f3d3B3B,3] [f3d3-B3-B,3][a-d-B-B,-]|[a2-d2B2B,2] [a3d3-A3-B,3][a3/2d3/2-A3/2-B,3/2-][g3/2-d3/2A3/2B,3/2]|[g3-B3-=G3-E,3][g3B3G3B,3] [B2-G2-E,2-]|
[B-G-E,][B3G3B,3] [B3-G3-E,3][B-G-B,-]|[B2G2B,2] [B3-G3-E,3][B3G3B,3]|
